X:1
T:Abendchor
T:Conradin Kreutzer
T:Abendchor
T:CPDL   —   Creative Commons Attribution Non Commercial 3.0
T:CPDL   —   Creative Commons Attribution Non Commercial 3.0
T:CPDL   —   Creative Commons Attribution Non Commercial 3.0
T:CPDL   —   Creative Commons Attribution Non Commercial 3.0
C:Conradin Kreutzer
Z:Karl Johann Braun von Braunthal
Z:CPDL   —   Creative Commons Attribution Non Commercial 3.0
%%score [ ( 1 2 ) 3 4 ]
L:1/8
Q:1/4=100
M:4/4
K:D
V:1 treble nm="Sopran\nAlt"
V:2 treble 
V:3 treble-8 nm="Tenor"
V:4 bass nm="Bass"
V:1
!pp!"^Mäßig" F4 A4 | D4 D4 |!<(! E6 FG!<)! |!>(! G4 F2!>)! z2 |!pp!!<(! A4 A4!<)! | d6 c!>(!A | %6
w: 1.  Schon die|A- bend-|glo- cken _|klan- gen,|und die|Flur im _|
w: 2.   Seht aus|dunk- ler|Hö- he _|win- ken|hell des|Mon- des _|
w: 3. Schlum- mert|süß, und|je- den _|Mor- gen|weck' euch|froh der _|
 (E4!>)! F2) ^G2 | A6 z2 |!<(! F4 A4!<)! |!>(! d4 F4!>)! |!mf! (B4 A2) G2 | G4 F2 z2 | %12
w: Schlum- * mer|liegt,|wenn die|Ster- ne|auf- * ge-|gan- gen,|
w: freund- * lich|Bild,|und des|Him- mels|Lich- * ter|blin- ken|
w: Son- * ne|Strahl.|Schlum- mert|süß und|frei _ von|Sor- gen,|
!p! (F2 ^G2) A4 | (d4 c2) A2 |!f! (E4 F2) ^G2 | A4 z2 |:!mf! AB | !>!A3"^dim." .G!p! .G2 .F2 | %18
w: je- * der|gern _ im|Traum _ sich|wiegt.|Mag ein|ru- hi- ges Ge-|
w: an _ dem|grau- * en|Nacht- * ge-|fild!|Von dem|Glanz aus sel'- gen|
w: frei _ von|Sün- * den,|Angst _ und|Qual.|Ja ein|ru- hi- ges Ge-|
 .F2 .E2 z2!mf! AB | !>!A3"^dim." .G .G2!p! .F2 | .F2 .E2 z2 |!pp! D!<(!D | D3 F!<)! F2 A2 | %23
w: wis- sen uns den|kur- zen Schlaf ver-|sü- ßen,|bis der|Mor- gen- ruf er-|
w: Hal- len uns- re|Her- zen fro- her|wal- len|bis des|neu- en Ta- ges|
w: wis- sen mög' euch|stets den Schlaf ver-|sü- ßen,|dass, wenn|Got- tes Ruf einst|
 A6!mf! F!<(!F | F3 A!<)! A2 d2 |!f! d6"^cresc." dd | !>!d3 B"^dim." A2 C2 |1!p! D4 z2 :|2 %28
w: schallt, bis der|Mor- gen- ruf er-|schallt, und das|Horn vom Fel- sen|hallt.|
w: Licht bis des|neu- en Ta- ges|Licht sie- gend|durch die Dämm'- rung|bricht.|
w: schallt, dass, wenn|Got- tes Ruf einst|schallt, er nicht|bang' ins Herz euch|hallt.|
 D2!ff! d4 d2 || (!>!e2 d)[Q:1/4=120]"^rit."B!>(! A2 A2!>)! |!p! !fermata!A6 z2 |] %31
w: hallt, und das|Horn _ vom Fel- sen|hallt.|
w: bricht, sie- gend|durch _ die Dämm'- rung|bricht.|
w: hallt, er nicht|bang' _ ins Herz euch|hallt.|
V:2
 D4 E4 | D4 D4 | (D4 C2) DE | E4 D2 x2 | A4 A4 | ^G6 AE | (E4 ^D2) =D2 | C6 x2 | D4 E4 | %9
 F4 (D2 F2) | (G4 E2) E2 | E4 D2 x2 | (D2 E2) E4 | (F2 ^G2 A2) E2 | (E4 ^D2) =D2 | C4 x2 |: AB | %17
 A3 E E2 D2 | D2 C2 x2 AB | A3 E E2 D2 | D2 C2 x2 | A,A, | A,3 D D2 F2 | F6 DD | D3 F F2 A2 | %25
 A6 AA | G3 G F2 A,2 |1 A,4 x2 :|2 A,2 A4 A2 || B3 G F2 G2 | F6 x2 |] %31
V:3
!pp! A4 A4 | F4 A4 |!<(! B4 A4!<)! |!>(! c4 d2!>)! z2 |!pp!!<(! f4 e4!<)! | e6 e2 | %6
w: 1.  Schon die|A- bend-|glo- cken|klan- gen,|und die|Flur im|
w: 2.   Seht aus|dunk- ler|Hö- he|win- ken|hell des|Mon- des|
w: 3. Schlum- mert|süß, und|je- den|Mor- gen|weck' euch|froh der|
!>(! (c4!>)! ^B2) =B2 | A6 z2 |!<(! A4 e4!<)! |!>(! d4 A4!>)! |!mf! (d4 c2) c2 | c4 d2 z2 | %12
w: Schlum- * mer|liegt,|wenn die|Ster- ne|auf- * ge-|gan- gen,|
w: freund- * lich|Bild,|und des|Him- mels|Lich- * ter|blin- ken|
w: Son- * ne|Strahl;|schlum- mert|süß und|frei _ von|Sor- gen,|
!p! (A2 B2) c4 | (d2 e2) (e2 c2) |!f! (c4 ^B2) =B2 | A4 z2 |:!mf! AB | !>!A3"^dim." .A!p! .A2 .A2 | %18
w: je- * der|gern _ im _|Traum _ sich|wiegt.|Mag ein|ru- hi- ges Ge-|
w: an _ dem|grau- * en _|Nacht- * ge-|fild!|Von dem|Glanz aus sel'- gen|
w: frei _ von|Sün- * den, _|Angst _ und|Qual.|Ja ein|ru- hi- ges Ge-|
 .A2 .A2 z2!mf! AB | !>!A3"^dim." .A .A2!p! .A2 | .A2 .A2 z2 |!pp! F!<(!F | F3 A!<)! A2 d2 | %23
w: wis- sen uns den|kur- zen Schlaf ver-|sü- ßen,|bis der|Mor- gen- ruf er-|
w: Hal- len uns- re|Her- zen fro- her|wal- len|bis des|neu- en Ta- ges|
w: wis- sen mög' euch|stets den Schlaf ver-|sü- ßen,|dass, wenn|Got- tes Ruf einst|
 d6!mf! A!<(!A | A3 =c!<)! c2 [cf]2 |!f! [=cf]6"^cresc." [cf][cf] | !>![Bg]3 d"^dim." d2 G2 |1 %27
w: schallt, bis der|Mor- gen- ruf er-|schallt, und das|Horn vom Fel- sen|
w: Licht bis des|neu- en Ta- ges|Licht sie- gend|durch die Dämm'- rung|
w: schallt, dass, wenn|Got- tes Ruf einst|schallt, er nicht|bang' ins Herz euch|
!p! F4 z2 :|2 F2!ff! [=cf]4 [cf]2 || !>![Bg]3 d!>(! d2 c2!>)! |!p! !fermata!d6 z2 |] %31
w: hallt.|hallt, und das|Horn vom Fel- sen|hallt.|
w: bricht.|bricht, sie- gend|durch die Dämm'- rung|bricht.|
w: hallt.|hallt, er nicht|bang' ins Herz euch|hallt.|
V:4
!pp! D,4 C,4 | B,,4 F,4 |!<(! G,4 A,4!<)! |!>(! A,,4 D,2!>)! z2 |!pp!!<(! D4 C4!<)! | B,6 A,C, | %6
!>(! E,6!>)! E,2 | A,,6 z2 |!<(! D,4 C,4!<)! |!>(! B,,4 F,4!>)! |!mf! (E,4 A,2) A,,2 | %11
 A,,4 D,2 z2 |!p! D,4 C,4 | (B,,4 A,,2) C,2 |!f! E,6 E,2 | A,,4 z2 |:!mf! A,B, | %17
 !>!A,3"^dim." .C,!p! .C,2 .D,2 | .A,2 .A,,2 z2!mf! A,B, | !>!A,3"^dim." .C, .C,2!p! .D,2 | %20
 .A,2 .A,,2 z2 |!pp! D,!<(!D, | D,3 D,!<)! D,2 D,2 | D,6!mf! D,!<(!D, | D,3 D,!<)! D,2 D,2 | %25
!f! D,6"^cresc." D,D, | !>!G,3 G,"^dim." A,2 A,,2 |1!p! D,4 z2 :|2 D,2!ff! D,4 D,2 || %29
 !>!G,3 G,!>(! A,2 A,,2!>)! |!p! !fermata!D,6 z2 |] %31

